icons/vidicon-2-fill.svg

<svg xmlns="http://www.w3.org/2000/svg" width="24" height="24" fill="none"><g clip-path="url(#a)"><g><path fill="#121212" d="M13 6V4H5V2H15V6H16C16.2652 6 16.5196 6.10536 16.7071 6.29289C16.8946 6.48043 17 6.73478 17 7V9.2L22.213 5.55C22.288 5.49746 22.3759 5.4665 22.4672 5.4605C22.5586 5.4545 22.6498 5.4737 22.731 5.51599C22.8122 5.55829 22.8802 5.62206 22.9276 5.70035C22.9751 5.77865 23.0001 5.86846 23 5.96V18.04C23.0001 18.1315 22.9751 18.2214 22.9276 18.2996C22.8802 18.3779 22.8122 18.4417 22.731 18.484C22.6498 18.5263 22.5586 18.5455 22.4672 18.5395C22.3759 18.5335 22.288 18.5025 22.213 18.45L17 14.8V19C17 19.2652 16.8946 19.5196 16.7071 19.7071C16.5196 19.8946 16.2652 20 16 20H2C1.73478 20 1.48043 19.8946 1.29289 19.7071C1.10536 19.5196 1 19.2652 1 19V7C1 6.73478 1.10536 6.48043 1.29289 6.29289C1.48043 6.10536 1.73478 6 2 6H13ZM5 10V12H7V10H5Z"/></g></g><defs><clipPath id="a"><rect width="24" height="24" fill="white"/></clipPath></defs></svg>

<svg width="24" height="24" fill="none" xmlns="http://www.w3.org/2000/svg"><g clip-path="url(#a)"><path d="M13 6V4H5V2h10v4h1a1 1 0 0 1 1 1v2.2l5.213-3.65a.5.5 0 0 1 .787.41v12.08a.5.5 0 0 1-.787.41L17 14.8V19a1 1 0 0 1-1 1H2a1 1 0 0 1-1-1V7a1 1 0 0 1 1-1h11Zm-8 4v2h2v-2H5Z" /></g><defs><clipPath id="a"><path fill="#fff" d="M0 0h24v24H0z"/></clipPath></defs></svg>
